X: 15843
T: Gortnatubrid, The
R: polka
M: 2/4
K: Bdorian
f>e|:dB cA|Bc de|fd ed|cA f>e|
dB cA|Bc de|fd ec|1 B2 f>e:|2 B2 B2||
f2ba|fe f>e|dB cA|Bc de|
fb a=g|fe f>e|dB cA|1 B2 B2:|2 B2 f>e||

